X:0686
T:Hearts of Oak.
M:C
L:1/8
Q:1/4=120
I: ||
Z:Jack Campin * www.campin.me.uk * 2009
K:D
  A|d2 dd d2 fe |d2cB A2z A|B2Bc d2 de|f2 ge f2z
  A|d2 FG A2 Bc |d2FG A2z e|f2ed a2 cd|e2 eE A2
e>e|e2 cd e2 f>f|f2de f2z f|edcf dB z2|
    d<dA2 F<Dz A|Bcde f2 ed|a2Ac d2 z|]

